libs/ui/packages/crypto-icons/src/svg/XZC.svg

<svg width="24" height="24" viewBox="0 0 24 24" fill="none">
<path d="M14.0438 14.361H16.5863V16.584H8.94751L18.4298 7.09497C18.5801 6.94279 18.6829 6.7501 18.7255 6.54045C18.7682 6.3308 18.7488 6.11328 18.6698 5.91447C18.5859 5.71686 18.4456 5.54841 18.2664 5.4302C18.0872 5.31199 17.8772 5.2493 17.6625 5.24997H6.33751C6.19429 5.24897 6.0523 5.27646 5.91981 5.33085C5.78732 5.38525 5.66697 5.46545 5.56577 5.56679C5.46456 5.66813 5.38453 5.78859 5.33032 5.92116C5.27611 6.05372 5.24881 6.19575 5.25001 6.33896V14.361L9.95626 9.65097H7.41376V7.41596H15.0398L5.57026 16.905C5.41989 17.0571 5.31711 17.2498 5.27449 17.4595C5.23186 17.6691 5.25124 17.8867 5.33026 18.0855C5.50201 18.4867 5.89126 18.75 6.33751 18.75H17.6625C17.8054 18.75 17.947 18.7218 18.079 18.667C18.2111 18.6123 18.331 18.5321 18.432 18.4309C18.533 18.3298 18.6131 18.2097 18.6677 18.0776C18.7222 17.9455 18.7502 17.8039 18.75 17.661V9.65097L14.0438 14.361Z" fill="#23B852"/>
</svg>

<svg width="24" height="24" viewBox="0 0 24 24" fill="none"><path fill="#23b852" d="M14.044 14.361h2.542v2.223H8.948l9.482-9.489a1.1 1.1 0 0 0 .24-1.18 1.09 1.09 0 0 0-1.008-.665H6.339A1.08 1.08 0 0 0 5.25 6.339v8.022l4.706-4.71H7.414V7.416h7.626l-9.47 9.489a1.1 1.1 0 0 0-.24 1.18 1.09 1.09 0 0 0 1.008.665h11.325a1.086 1.086 0 0 0 1.087-1.089v-8.01z"/></svg>
